findly-builder/apps/searchassist/src/assets/icons/content/latest-content-icons/gray-time.svg

<svg width="10" height="10" viewBox="0 0 10 10" fill="none" xmlns="http://www.w3.org/2000/svg">
<path d="M5.32275 2.13485C5.30785 1.9697 5.16904 1.84028 5 1.84028C4.82102 1.84028 4.67593 1.98537 4.67593 2.16435V5.22742L4.67725 5.25691C4.69215 5.42207 4.83096 5.55149 5 5.55149H7.54546L7.57496 5.55017C7.74012 5.53526 7.86954 5.39645 7.86954 5.22742L7.86821 5.19792C7.85331 5.03276 7.7145 4.90334 7.54546 4.90334L5.32407 4.90318V2.16435L5.32275 2.13485Z" fill="#5F6368"/>
<path fill-rule="evenodd" clip-rule="evenodd" d="M5 0.625C2.58375 0.625 0.625 2.58375 0.625 5C0.625 7.41625 2.58375 9.375 5 9.375C7.41625 9.375 9.375 7.41625 9.375 5C9.375 2.58375 7.41625 0.625 5 0.625ZM5 1.27315C7.05828 1.27315 8.72685 2.94172 8.72685 5C8.72685 7.05828 7.05828 8.72685 5 8.72685C2.94172 8.72685 1.27315 7.05828 1.27315 5C1.27315 2.94172 2.94172 1.27315 5 1.27315Z" fill="#5F6368"/>
</svg>

<svg width="10" height="10" fill="none" xmlns="http://www.w3.org/2000/svg"><path d="M5.323 2.135a.324.324 0 0 0-.647.03v3.062l.001.03A.324.324 0 0 0 5 5.55h2.575a.324.324 0 0 0 .295-.324l-.002-.03a.324.324 0 0 0-.323-.294h-2.22V2.164l-.002-.03Z" fill="#5F6368"/><path fill-rule="evenodd" clip-rule="evenodd" d="M5 .625a4.375 4.375 0 1 0 0 8.75 4.375 4.375 0 0 0 0-8.75Zm0 .648a3.727 3.727 0 1 1 0 7.454 3.727 3.727 0 0 1 0-7.454Z" fill="#5F6368"/></svg>
